X:1
T:Title
%%score { ( 1 3 4 ) | ( 2 5 6 ) }
L:1/8
M:2/2
K:A
V:1 treble nm="Grand Piano"
V:3 treble 
V:4 treble 
V:2 bass 
V:5 bass 
V:6 bass 
V:1
 z4 z2[Q:1/4=110] E2 | [CEA]3 [CEA] [EB]2 [G,E]2 | [CEA]3 [CEA] B2 E2 | [EA]3 [EA] [EB]2 [EB]2 | %4
 z4 z2 c2 | [Ad]3 [Ad] [Ee]2 [EGB]2 | [EAc]3 [EAc] [EBd]2 [EAc]2 | [EGB]3 [FA] [B,EG]2 [A,^DF]2 | %8
 [G,E]6 E2 | B8 | G8 | d8 | [GB]6 [GB]2 | z2 .e6 | z4 ^d4 | e8- | e8 | z2 .e6 | z2 .d6 | %19
 .c4 z2 c2 | B6 E2 | F2 G2 A2 B2 | c2 d2 e2 [Af]2 | .E4 e4 | e8 | A4 G2 =G2 | z2 d2 c2 d2 | c4 B4 | %28
[M:3/4] [CEA]6 |] %29
V:2
 z4 z2 E,2 | A,,3 A,, [E,G,]2 E,2 | A,,3 A,, [E,G,E]2 [E,G,]2 | [C,A,]3 [C,A,] [E,G,]2 [E,G,]2 | %4
 [A,,A,]6 [A,E]2 | [F,A,]3 [F,A,] [G,B,]2 E,2 | A,3 A, G,2 A,2 | B,3 B, B,,2 B,,2 | E,6 G,2 | %9
 z2 E,2 z2 C2 | z2 E,2 z2 B,2 | .G,4 .B,3 D | [E,E]6 [E,E]2 | .E4 z4 | [B,EG]4[K:bass] [B,,B,]4 | %15
 B,8 | [B,D]6 [E,G,E]2 | [A,E]4 z4 | z2 .B,6 | z2 .C6 | [E,G,E]6[K:treble] C2 | D2 E2 F2 G2 | %22
 A2 B2 c2 D2 | z4 G4[K:bass] | [A,CA]2 [E,B,]2 [C,A,]2 E,2 | z2 C2 [B,,B,]2 [C,A,]2 | %26
 [D,A,]6 [D,A,]2 | .[E,A,E]4 [G,E]2 D2 |[M:3/4] A,,6 |] %29
V:3
 x8 | x8 | x8 | x8 | [Ec]6 z =G, | x8 | x8 | x8 | x8 | z2 E2 z2 A2 | z2 E2 z2 G2 | %11
 z2 [A,F]2 G2 .[CAc]2 | x8 | .c4 B2 f2 | B4 F2 A2 | G2 A2 B2 A2 | G6 d2 | .c4 z2 c2 | .B4 z2 B2 | %19
 z2 .A6 | x8 | x8 | x8 | [Ae]2- [CAe]2 z2 B,2 | z2 G2 A2 [EGd]2 | [Ec]2 e6- | e2 z2 z4 | %27
 z2 E2 z2 E2 |[M:3/4] x6 |] %29
V:4
 x8 | x8 | x8 | x8 | x8 | x8 | x8 | x8 | x8 | z4 E4- | E2 z2 E4- | E2 z2 z4 | x8 | x8 | x8 | x8 | %16
 x8 | z4 E4 | z4 E4 | z4 E4 | x8 | x8 | x8 | x8 | x8 | x8 | F8 | x8 |[M:3/4] x6 |] %29
V:5
 x8 | x8 | x8 | x8 | x8 | x8 | x8 | x8 | x8 | D8 | B,8 | z2 E,4 E,2 | x8 | %13
 [A,A]2- [A,CA]2 [G,B,]2 [A,CA]2 | x4[K:bass] x4 | E,2 F,2 G,2 [A,C]2 | x8 | z2 .C6 | .G,4 z2 G,2 | %19
 z4 z2 A,2 | x6[K:treble] x2 | x8 | x8 | C2 A,2 [B,D]2[K:bass] E,2 | x8 | A,,4 z4 | x8 | z4 E,4 | %28
[M:3/4] x6 |] %29
V:6
 x8 | x8 | x8 | x8 | x8 | x8 | x8 | x8 | x8 | z4 E,4- | E,2 z2 E,4- | E,2 z2 z4 | x8 | x8 | %14
 x4[K:bass] x4 | x8 | x8 | z4 A,2 A,2 | [E,E]4 E,4 | [A,E]4 A,,4 | x6[K:treble] x2 | x8 | x8 | %23
 x6[K:bass] x2 | x8 | x8 | x8 | x8 |[M:3/4] x6 |] %29

